X:15007
T:Off She Goes
T:Humpty Dumpty
R:Jig
C:Trad.
O:England
Z:Paul Hardy's Session Tunebook 2015 (see www.paulhardy.net). Creative Commons cc by-nc-sa licenced.
M:6/8
L:1/8
Q:3/8=100
K:D
A|"D"F2A "G"G2B|"A"ABc "D"d2A|"D"F2A "G"G2B|"D"AFD "A7"E2D|
"D"F2A "G"G2B|"A"ABc "D"d2e|fed "G"g2f|"A7"edc "D"d2:|
|:g|"D"faf def|"G"gbg e2g|"D"faf def|"A"ecA A2g|
"D"faf def|"G"gbg efg|"D"fed "G"g2f|"A7"edc "D"d2:|

